packages/core/src/svgs/dbr.svg

<svg width="24" height="24" viewBox="0 0 24 24" fill="none" xmlns="http://www.w3.org/2000/svg">
<g clip-path="url(#clip0_31_9037)">
<path d="M0 0H24V24H0V0Z" fill="#151E57"/>
<path d="M12.8572 6.85693H10.7143L10.0715 9.42836H8.01861C6.85718 9.42836 3.85718 10.4912 3.85718 13.5169C3.85718 15.1884 4.85146 16.2855 6.55718 16.2855H10.6715L11.1429 14.5712H7.17003C6.82289 14.5584 6.00004 14.1126 6.00004 13.3412C6.00004 12.3726 7.12289 11.1426 8.40004 11.1426H9.64289L9.00004 13.7141C10.26 13.7141 11.3572 12.8569 11.6615 11.6355L12.8572 6.85693ZM16.2858 6.85693H14.1429L12.4286 13.7141H14.5715L15.2143 11.1426H16.9629C17.3058 11.1555 18 11.6012 18 12.3726C18 13.3412 16.8943 14.5712 15.6215 14.5712H13.4829C13.0091 14.5716 12.5522 14.7466 12.1995 15.063C11.8468 15.3793 11.6232 15.8146 11.5715 16.2855H15.9986C17.3786 16.1826 20.1429 15.2226 20.1429 12.1969C20.1429 10.5255 19.1572 9.42836 17.46 9.42836H15.6429L16.2858 6.85693Z" fill="white"/>
</g>
<defs>
<clipPath id="clip0_31_9037">
<rect width="24" height="24" fill="white"/>
</clipPath>
</defs>
</svg>

<svg xmlns="http://www.w3.org/2000/svg" width="24" height="24" fill="none" viewBox="0 0 24 24"><g clip-path="url(#a)"><path fill="#151E57" d="M0 0h24v24H0z"/><path fill="#fff" d="M12.857 6.857h-2.143l-.643 2.571H8.02c-1.162 0-4.162 1.063-4.162 4.089 0 1.671.994 2.768 2.7 2.768h4.115l.47-1.714H7.17c-.347-.013-1.17-.458-1.17-1.23 0-.968 1.123-2.198 2.4-2.198h1.243L9 13.714c1.26 0 2.357-.857 2.662-2.078zm3.429 0h-2.143l-1.714 6.857h2.143l.642-2.571h1.749c.343.012 1.037.458 1.037 1.23 0 .968-1.106 2.198-2.379 2.198h-2.138a1.924 1.924 0 0 0-1.912 1.714H16c1.38-.102 4.144-1.062 4.144-4.088 0-1.671-.986-2.769-2.683-2.769h-1.817z"/></g><defs><clipPath id="a"><path fill="#fff" d="M0 0h24v24H0z"/></clipPath></defs></svg>
